images/Logo.svg

<svg fill="none" height="38" viewBox="0 0 40 38" width="40" xmlns="http://www.w3.org/2000/svg"><path d="m31.2581 3.50238c-4.571-2.874043-10.1066-3.880876-15.4243-2.805413-5.1774 1.049523-9.71976 4.068713-12.63234 8.396363-2.832672 4.23087-3.840608 9.39037-2.803084 14.34857 1.038724 4.854 4.294874 9.0323 8.423994 11.424 4.08653 2.3881 8.88763 3.3209 13.59363 2.641 4.8608-.6693 9.3461-2.9366 12.7226-6.4309 3.5214-3.6129 5.4809-9.0937 4.6853-14.4137-.3872-2.6661-1.3521-5.2201-2.8296-7.49003-1.4775-2.26994-3.4334-4.20325-5.7362-5.66989zm1.07 25.63892c-.9483 1.9619-2.3465 3.682-4.0852 5.0257-1.7388 1.3438-3.7708 2.2749-5.9374 2.7203-2.2203.4422-4.5132.3929-6.7116-.1443s-4.2469-1.5488-5.99617-2.961c-3.45137-2.7927-5.50672-6.8139-6.03529-10.8838-.56423-4.0653.5371-8.1842 3.06277-11.4547 2.45698-3.16316 6.09229-5.2419 10.10919-5.78061 1.9225-.24963 3.8767-.11761 5.7462.38822s3.6163 1.37515 5.1364 2.55629c2.977 2.2944 5.0581 5.524 5.8935 9.146.8214 3.5931.628 7.6088-1.1824 11.3879z" fill="#010118"/></svg>

<svg width="40" height="38" viewBox="0 0 40 38" fill="none" xmlns="http://www.w3.org/2000/svg">
<path d="M31.2581 3.50238C26.6871 0.628337 21.1515 -0.378496 15.8338 0.696967C10.6564 1.74649 6.11404 4.76568 3.20146 9.09333C0.368788 13.3242 -0.639148 18.4837 0.398376 23.4419C1.4371 28.2959 4.69325 32.4742 8.82237 34.8659C12.9089 37.254 17.71 38.1868 22.416 37.5069C27.2768 36.8376 31.7621 34.5703 35.1386 31.076C38.66 27.4631 40.6195 21.9823 39.8239 16.6623C39.4367 13.9962 38.4718 11.4422 36.9943 9.17227C35.5168 6.90233 33.5609 4.96902 31.2581 3.50238ZM32.3281 29.1413C31.3798 31.1032 29.9816 32.8233 28.2429 34.167C26.5041 35.5108 24.4721 36.4419 22.3055 36.8873C20.0852 37.3295 17.7923 37.2802 15.5939 36.743C13.3955 36.2058 11.347 35.1942 9.59773 33.782C6.14636 30.9893 4.09101 26.9681 3.56244 22.8982C2.99821 18.8329 4.09954 14.714 6.62521 11.4435C9.08219 8.28034 12.7175 6.2016 16.7344 5.66289C18.6569 5.41326 20.6111 5.54528 22.4806 6.05111C24.3501 6.55694 26.0969 7.42626 27.617 8.6074C30.594 10.9018 32.6751 14.1314 33.5105 17.7534C34.3319 21.3465 34.1385 25.3622 32.3281 29.1413Z" fill="#010118"/>
</svg>
